apps/scalable/gnome-mastermind.svg

<?xml version="1.0" standalone="no"?><!-- Generator: Gravit.io --><svg xmlns="http://www.w3.org/2000/svg" xmlns:xlink="http://www.w3.org/1999/xlink" style="isolation:isolate" viewBox="0 0 256 256" width="256" height="256"><g id="Group" filter="url(#9DZ5mIQcIANDP5MrteqsuFyfZxFWzCUy)"><linearGradient id="_lgradient_117" x1="0.233" y1="-0.07099968905881168" x2="0.933" y2="0.923933063303767" gradientTransform="matrix(244.648,0,0,228.339,6.343,13.28)" gradientUnits="userSpaceOnUse"><stop offset="0%" stop-opacity="1" style="stop-color:rgb(232,232,232)"/><stop offset="100%" stop-opacity="1" style="stop-color:rgb(245,245,245)"/></linearGradient><path d=" M 166.351 13.28 C 240.407 13.28 250.991 23.837 250.991 97.824 L 250.991 157.075 C 250.991 231.061 240.407 241.619 166.351 241.619 L 90.982 241.619 C 16.926 241.619 6.343 231.061 6.343 157.075 L 6.343 97.824 C 6.343 23.837 16.926 13.28 90.982 13.28 L 166.351 13.28 L 166.351 13.28 Z " id="Path" fill="url(#_lgradient_117)"/></g><defs><filter id="9DZ5mIQcIANDP5MrteqsuFyfZxFWzCUy" x="-200%" y="-200%" width="400%" height="400%" filterUnits="objectBoundingBox" color-interpolation-filters="sRGB"><feGaussianBlur xmlns="http://www.w3.org/2000/svg" in="SourceGraphic" stdDeviation="4.294"/><feOffset xmlns="http://www.w3.org/2000/svg" dx="0" dy="4" result="pf_100_offsetBlur"/><feFlood xmlns="http://www.w3.org/2000/svg" flood-color="#000000" flood-opacity="0.4"/><feComposite xmlns="http://www.w3.org/2000/svg" in2="pf_100_offsetBlur" operator="in" result="pf_100_dropShadow"/><feBlend xmlns="http://www.w3.org/2000/svg" in="SourceGraphic" in2="pf_100_dropShadow" mode="normal"/></filter></defs><g opacity="0.6"><path d=" M 8.476 55.74 C 6.729 66.667 6.158 80.255 6.158 97.205 L 6.158 156.456 C 6.158 230.442 16.742 241 90.798 241 L 166.167 241 C 221.302 241 241.245 235.126 247.842 201.603 L 8.476 55.74 L 8.476 55.74 Z " id="Path" fill="rgb(255,255,255)"/></g><linearGradient id="_lgradient_118" x1="0" y1="0.5" x2="0.9981068028048512" y2="0.43849544574035293" gradientTransform="matrix(30.592519,0,0,21.311151,155.564171,81.773424)" gradientUnits="userSpaceOnUse"><stop offset="0%" stop-opacity="1" style="stop-color:rgb(194,163,192)"/><stop offset="100%" stop-opacity="1" style="stop-color:rgb(130,94,135)"/></linearGradient><path d=" M 185.823 83.242 C 186.731 84.915 185.722 87.345 183.572 88.665 L 161.439 102.255 C 159.289 103.575 156.806 103.289 155.898 101.616 C 154.99 99.943 155.998 97.513 158.149 96.193 L 180.281 82.603 C 182.432 81.283 184.915 81.569 185.823 83.242 Z " id="Path" fill="url(#_lgradient_118)"/><radialGradient id="_rgradient_15" fx="0.5897581582980775" fy="0.3967638312610511" cx="0.6070086947815199" cy="0.4123262444483724" r="7.038" gradientTransform="matrix(-13.703102,-28.466809,22.855529,-16.881378,174.305,67.421513)" gradientUnits="userSpaceOnUse"><stop offset="0%" stop-opacity="1" style="stop-color:rgb(173,127,168)"/><stop offset="100%" stop-opacity="1" style="stop-color:rgb(117,80,123)"/></radialGradient><path d=" M 174.305 70.667 C 182.957 65.511 192.169 65.797 198.206 76.675 C 203.557 86.316 200.568 96.461 190.759 100.667 L 174.305 70.667 L 174.305 70.667 Z " id="Path" fill="url(#_rgradient_15)"/><radialGradient id="_rgradient_16" fx="0.50025" fy="0.50025" cx="0.50025" cy="0.50025" r="7.098" gradientTransform="matrix(32.908,0,0,33.334,164.432,154)" gradientUnits="userSpaceOnUse"><stop offset="1.304%" stop-opacity="1" style="stop-color:rgb(118,194,43)"/><stop offset="98.261%" stop-opacity="1" style="stop-color:rgb(70,169,38)"/></radialGradient><ellipse vector-effect="non-scaling-stroke" cx="180.886" cy="170.667" rx="16.454000000000008" ry="16.667" id="Ellipse" fill="url(#_rgradient_16)"/><radialGradient id="_rgradient_17" fx="0.50025" fy="0.50025" cx="0.50025" cy="0.50025" r="7.098" gradientTransform="matrix(32.908,0,0,33.334,128.566,154)" gradientUnits="userSpaceOnUse"><stop offset="0%" stop-opacity="1" style="stop-color:rgb(233,185,110)"/><stop offset="100%" stop-opacity="1" style="stop-color:rgb(123,76,1)"/></radialGradient><ellipse vector-effect="non-scaling-stroke" cx="145.02" cy="170.667" rx="16.454000000000008" ry="16.667" id="Ellipse" fill="url(#_rgradient_17)"/><radialGradient id="_rgradient_18" fx="0.50025" fy="0.50025" cx="0.50025" cy="0.50025" r="7.098" gradientTransform="matrix(32.908,0,0,33.334,92.033,154)" gradientUnits="userSpaceOnUse"><stop offset="1.304%" stop-opacity="1" style="stop-color:rgb(109,199,241)"/><stop offset="99.13%" stop-opacity="1" style="stop-color:rgb(26,127,212)"/></radialGradient><ellipse vector-effect="non-scaling-stroke" cx="108.487" cy="170.667" rx="16.454000000000008" ry="16.667" id="Ellipse" fill="url(#_rgradient_18)"/><radialGradient id="_rgradient_19" fx="0.5" fy="0.5" cx="0.5" cy="0.5" r="0.5" gradientTransform="matrix(32.908,0,0,33.334,55.834,154)" gradientUnits="userSpaceOnUse"><stop offset="1.7390000000000003%" stop-opacity="1" style="stop-color:rgb(253,164,99)"/><stop offset="98.261%" stop-opacity="1" style="stop-color:rgb(243,79,23)"/></radialGradient><ellipse vector-effect="non-scaling-stroke" cx="72.288" cy="170.667" rx="16.453999999999997" ry="16.667" id="Ellipse" fill="url(#_rgradient_19)"/><radialGradient id="_rgradient_20" fx="0.50025" fy="0.50025" cx="0.50025" cy="0.50025" r="7.098" gradientTransform="matrix(32.908,0,0,33.334,164.432,110.666)" gradientUnits="userSpaceOnUse"><stop offset="0.8699999999999999%" stop-opacity="1" style="stop-color:rgb(255,218,100)"/><stop offset="100%" stop-opacity="1" style="stop-color:rgb(234,179,5)"/></radialGradient><ellipse vector-effect="non-scaling-stroke" cx="180.886" cy="127.333" rx="16.454000000000008" ry="16.667" id="Ellipse" fill="url(#_rgradient_20)"/><radialGradient id="_rgradient_21" fx="0.50025" fy="0.50025" cx="0.50025" cy="0.50025" r="7.098" gradientTransform="matrix(32.908,0,0,33.334,128.233,110.666)" gradientUnits="userSpaceOnUse"><stop offset="0%" stop-opacity="1" style="stop-color:rgb(247,99,99)"/><stop offset="97.391%" stop-opacity="1" style="stop-color:rgb(218,22,54)"/></radialGradient><ellipse vector-effect="non-scaling-stroke" cx="144.687" cy="127.333" rx="16.454000000000008" ry="16.667" id="Ellipse" fill="url(#_rgradient_21)"/><radialGradient id="_rgradient_22" fx="0.50025" fy="0.50025" cx="0.50025" cy="0.50025" r="7.098" gradientTransform="matrix(32.908,0,0,33.334,92.033,110.666)" gradientUnits="userSpaceOnUse"><stop offset="1.304%" stop-opacity="1" style="stop-color:rgb(167,167,241)"/><stop offset="98.696%" stop-opacity="1" style="stop-color:rgb(140,89,217)"/></radialGradient><ellipse vector-effect="non-scaling-stroke" cx="108.487" cy="127.333" rx="16.454000000000008" ry="16.667" id="Ellipse" fill="url(#_rgradient_22)"/><radialGradient id="_rgradient_23" fx="0.50025" fy="0.50025" cx="0.50025" cy="0.50025" r="7.098" gradientTransform="matrix(32.908,0,0,33.334,55.834,110.666)" gradientUnits="userSpaceOnUse"><stop offset="1.304%" stop-opacity="1" style="stop-color:rgb(109,199,241)"/><stop offset="99.13%" stop-opacity="1" style="stop-color:rgb(26,127,212)"/></radialGradient><ellipse vector-effect="non-scaling-stroke" cx="72.288" cy="127.333" rx="16.453999999999997" ry="16.667" id="Ellipse" fill="url(#_rgradient_23)"/><radialGradient id="_rgradient_24" fx="0.50025" fy="0.50025" cx="0.50025" cy="0.50025" r="7.098" gradientTransform="matrix(32.908,0,0,33.334,55.834,67.333)" gradientUnits="userSpaceOnUse"><stop offset="1.304%" stop-opacity="1" style="stop-color:rgb(118,194,43)"/><stop offset="98.261%" stop-opacity="1" style="stop-color:rgb(70,169,38)"/></radialGradient><ellipse vector-effect="non-scaling-stroke" cx="72.288" cy="84" rx="16.453999999999997" ry="16.667" id="Ellipse" fill="url(#_rgradient_24)"/><ellipse vector-effect="non-scaling-stroke" cx="144.687" cy="84" rx="3.290999999999997" ry="3.3329999999999984" id="Ellipse" fill="rgb(46,52,54)"/><radialGradient id="_rgradient_25" fx="0.18700829676243735" fy="0.0940000000000003" cx="0.5000001171728155" cy="0.5000000000000009" r="3.039" gradientTransform="matrix(10.35027,0,0,10.44,139.512864,78.783)" gradientUnits="userSpaceOnUse"><stop offset="0%" stop-opacity="1" style="stop-color:rgb(109,111,105)"/><stop offset="100%" stop-opacity="1" style="stop-color:rgb(85,87,83)"/></radialGradient><path d=" M 139.513 84.003 C 139.503 82.623 140.043 81.303 141.013 80.323 C 141.983 79.343 143.303 78.793 144.673 78.783 C 146.063 78.783 147.383 79.343 148.353 80.313 C 149.323 81.293 149.873 82.623 149.863 84.003 C 149.873 85.383 149.323 86.703 148.353 87.683 C 147.383 88.663 146.063 89.213 144.683 89.223 C 143.304518 89.213394 141.985571 88.659939 141.013 87.683 C 140.043 86.703 139.503 85.383 139.513 84.003 L 139.513 84.003 Z  M 143.283 84.003 C 143.273 83.623 143.423 83.253 143.693 82.983 C 143.953 82.713 144.323 82.553 144.703 82.553 C 145.483525 82.577975 146.101013 83.222116 146.093 84.003 C 146.093 84.373 145.953 84.743 145.683 85.013 C 145.423 85.283 145.063 85.443 144.683 85.443 C 144.306381 85.437733 143.947283 85.283051 143.684724 85.01299 C 143.422165 84.74293 143.277658 84.379618 143.283 84.003 L 143.283 84.003 Z " fill-rule="evenodd" id="Compound Path" fill="url(#_rgradient_25)"/><g id="Group"><ellipse vector-effect="non-scaling-stroke" cx="108.687" cy="84" rx="3.290999999999997" ry="3.3329999999999984" id="Ellipse" fill="rgb(46,52,54)"/><radialGradient id="_rgradient_26" fx="0.18700829676243735" fy="0.0940000000000003" cx="0.5000001171728137" cy="0.5" r="3.039" gradientTransform="matrix(10.35027,0,0,10.44,103.512864,78.783)" gradientUnits="userSpaceOnUse"><stop offset="0%" stop-opacity="1" style="stop-color:rgb(109,111,105)"/><stop offset="100%" stop-opacity="1" style="stop-color:rgb(85,87,83)"/></radialGradient><path d=" M 103.513 84.003 C 103.503 82.623 104.043 81.303 105.013 80.323 C 105.983 79.343 107.303 78.793 108.673 78.783 C 110.063 78.783 111.383 79.343 112.353 80.313 C 113.323 81.293 113.873 82.623 113.863 84.003 C 113.873 85.383 113.323 86.703 112.353 87.683 C 111.383 88.663 110.063 89.213 108.683 89.223 C 107.304518 89.213394 105.985571 88.659939 105.013 87.683 C 104.043 86.703 103.503 85.383 103.513 84.003 L 103.513 84.003 Z  M 107.283 84.003 C 107.273 83.623 107.423 83.253 107.693 82.983 C 107.953 82.713 108.323 82.553 108.703 82.553 C 109.483525 82.577975 110.101013 83.222116 110.093 84.003 C 110.093 84.373 109.953 84.743 109.683 85.013 C 109.423 85.283 109.063 85.443 108.683 85.443 C 108.306381 85.437733 107.947283 85.283051 107.684724 85.01299 C 107.422165 84.74293 107.277658 84.379618 107.283 84.003 L 107.283 84.003 Z " fill-rule="evenodd" id="Compound Path" fill="url(#_rgradient_26)"/></g></svg>

<svg xmlns="http://www.w3.org/2000/svg" style="isolation:isolate" width="256" height="256"><defs><clipPath id="a"><path d="M0 0h256v256H0z"/></clipPath></defs><g clip-path="url(#a)"><defs><filter id="b" width="270.648" height="254.338" x="-6.66" y="4.28" filterUnits="userSpaceOnUse"><feGaussianBlur xmlns="http://www.w3.org/2000/svg" in="SourceGraphic" stdDeviation="4.294"/><feOffset xmlns="http://www.w3.org/2000/svg" dy="4" result="pf_100_offsetBlur"/><feFlood xmlns="http://www.w3.org/2000/svg" flood-opacity=".4"/><feComposite xmlns="http://www.w3.org/2000/svg" in2="pf_100_offsetBlur" operator="in" result="pf_100_dropShadow"/><feBlend xmlns="http://www.w3.org/2000/svg" in="SourceGraphic" in2="pf_100_dropShadow"/></filter></defs><g filter="url(#b)"><linearGradient id="c" x1=".233" x2=".933" y1="-.071" y2=".995" gradientTransform="matrix(244.648 0 0 228.338 6.343 13.28)" gradientUnits="userSpaceOnUse"><stop offset="0%" stop-color="#e8e8e8"/><stop offset="100%" stop-color="#f5f5f5"/></linearGradient><path fill="url(#c)" d="M166.351 13.28c74.056 0 84.64 10.557 84.64 84.544v59.251c0 73.986-10.584 84.544-84.64 84.544H90.982c-74.056 0-84.639-10.558-84.639-84.544V97.824c0-73.987 10.583-84.544 84.639-84.544h75.369z"/></g><path fill="#FFF" d="M8.476 55.74C6.729 66.667 6.158 80.255 6.158 97.205v59.251c0 73.986 10.584 84.544 84.64 84.544h75.369c55.135 0 75.078-5.874 81.675-39.397L8.476 55.74z" opacity=".05"/><g opacity=".4"><linearGradient id="d" x1=".517" x2=".517" y2="1"><stop offset="0%" stop-color="#fff"/><stop offset="12.5%" stop-opacity=".098" stop-color="#fff"/><stop offset="92.5%" stop-opacity=".098"/><stop offset="100%" stop-opacity=".498"/></linearGradient><path fill="none" stroke="url(#d)" stroke-linecap="round" stroke-linejoin="round" stroke-width="4.077" d="M165.685 11.947c74.055 0 84.639 10.557 84.639 84.544v59.251c0 73.986-10.584 84.543-84.639 84.543h-75.37c-74.055 0-84.639-10.557-84.639-84.543V96.491c0-73.987 10.584-84.544 84.639-84.544h75.37z" vector-effect="non-scaling-stroke"/></g><defs><linearGradient id="e" x1="-.113" x2="1.074" y1=".596" y2=".491"><stop offset="0%" stop-color="#caacc7"/><stop offset="100%" stop-color="#75507b"/></linearGradient></defs><path d="M185.823 83.242c.908 1.673-.101 4.103-2.251 5.423l-22.133 13.59c-2.15 1.32-4.633 1.034-5.541-.639-.908-1.673.1-4.103 2.251-5.423l22.132-13.59c2.151-1.32 4.634-1.034 5.542.639z" fill="url(#e)"/><radialGradient id="f" cx=".5" cy=".5" r="7.038" fx=".71" fy=".405" gradientTransform="matrix(-1.668 -2.765 1.13 -.666 190.677 82.845)" gradientUnits="userSpaceOnUse"><stop offset="0%" stop-color="#ad7fa8"/><stop offset="100%" stop-color="#75507b"/></radialGradient><path fill="url(#f)" d="M174.305 70.667c8.652-5.156 17.864-4.87 23.901 6.008 5.351 9.641 2.362 19.786-7.447 23.992l-16.454-30z"/><radialGradient id="g" cx=".5" cy=".5" r="7.098" fx=".5" fy=".5" gradientTransform="matrix(.141 0 0 .141 -.07 -.07)" gradientUnits="userSpaceOnUse"><stop offset="1.304%" stop-color="#76c22b"/><stop offset="98.261%" stop-color="#46a926"/></radialGradient><ellipse fill="url(#g)" rx="1" ry="1" transform="matrix(16.454 0 0 16.667 180.886 170.667)" vector-effect="non-scaling-stroke"/><radialGradient id="h" cx=".5" cy=".5" r="7.098" fx=".5" fy=".5" gradientTransform="matrix(.141 0 0 .141 -.07 -.07)" gradientUnits="userSpaceOnUse"><stop offset="0%" stop-color="#e9b96e"/><stop offset="100%" stop-color="#7b4c01"/></radialGradient><ellipse fill="url(#h)" rx="1" ry="1" transform="matrix(16.454 0 0 16.667 145.02 170.667)" vector-effect="non-scaling-stroke"/><radialGradient id="i" cx=".5" cy=".5" r="7.098" fx=".5" fy=".5" gradientTransform="matrix(.141 0 0 .141 -.07 -.07)" gradientUnits="userSpaceOnUse"><stop offset="1.304%" stop-color="#6dc7f1"/><stop offset="99.13%" stop-color="#1a7fd4"/></radialGradient><ellipse fill="url(#i)" rx="1" ry="1" transform="matrix(16.454 0 0 16.667 108.487 170.667)" vector-effect="non-scaling-stroke"/><radialGradient id="j" cx=".5" cy=".5" r=".5" fx=".5" fy=".5" gradientTransform="matrix(2 0 0 2 -1 -1)" gradientUnits="userSpaceOnUse"><stop offset="1.739%" stop-color="#fda463"/><stop offset="98.261%" stop-color="#f34f17"/></radialGradient><ellipse fill="url(#j)" rx="1" ry="1" transform="matrix(16.454 0 0 16.667 72.288 170.667)" vector-effect="non-scaling-stroke"/><radialGradient id="k" cx=".5" cy=".5" r="7.098" fx=".5" fy=".5" gradientTransform="matrix(.141 0 0 .141 -.07 -.07)" gradientUnits="userSpaceOnUse"><stop offset=".87%" stop-color="#ffda64"/><stop offset="100%" stop-color="#eab305"/></radialGradient><ellipse fill="url(#k)" rx="1" ry="1" transform="matrix(16.454 0 0 16.667 180.886 127.333)" vector-effect="non-scaling-stroke"/><radialGradient id="l" cx=".5" cy=".5" r="7.098" fx=".5" fy=".5" gradientTransform="matrix(.141 0 0 .141 -.07 -.07)" gradientUnits="userSpaceOnUse"><stop offset="0%" stop-color="#f76363"/><stop offset="97.391%" stop-color="#da1636"/></radialGradient><ellipse fill="url(#l)" rx="1" ry="1" transform="matrix(16.454 0 0 16.667 144.687 127.333)" vector-effect="non-scaling-stroke"/><radialGradient id="m" cx=".5" cy=".5" r="7.098" fx=".5" fy=".5" gradientTransform="matrix(.141 0 0 .141 -.07 -.07)" gradientUnits="userSpaceOnUse"><stop offset="1.304%" stop-color="#a7a7f1"/><stop offset="98.696%" stop-color="#8c59d9"/></radialGradient><ellipse fill="url(#m)" rx="1" ry="1" transform="matrix(16.454 0 0 16.667 108.487 127.333)" vector-effect="non-scaling-stroke"/><radialGradient id="n" cx=".5" cy=".5" r="7.098" fx=".5" fy=".5" gradientTransform="matrix(.141 0 0 .141 -.07 -.07)" gradientUnits="userSpaceOnUse"><stop offset="1.304%" stop-color="#6dc7f1"/><stop offset="99.13%" stop-color="#1a7fd4"/></radialGradient><ellipse fill="url(#n)" rx="1" ry="1" transform="matrix(16.454 0 0 16.667 72.288 127.333)" vector-effect="non-scaling-stroke"/><radialGradient id="o" cx=".5" cy=".5" r="7.098" fx=".5" fy=".5" gradientTransform="matrix(.141 0 0 .141 -.07 -.07)" gradientUnits="userSpaceOnUse"><stop offset="1.304%" stop-color="#76c22b"/><stop offset="98.261%" stop-color="#46a926"/></radialGradient><ellipse fill="url(#o)" rx="1" ry="1" transform="matrix(16.454 0 0 16.667 72.288 84)" vector-effect="non-scaling-stroke"/><ellipse fill="#2E3436" rx="1" ry="1" transform="matrix(3.291 0 0 3.333 144.687 84)" vector-effect="non-scaling-stroke"/><radialGradient id="p" cx=".5" cy=".5" r="3.039" fx=".187" fy=".094" gradientTransform="matrix(10.35 0 0 10.44 139.513 78.783)" gradientUnits="userSpaceOnUse"><stop offset="0%" stop-color="#6d6f69"/><stop offset="100%" stop-color="#555753"/></radialGradient><path fill="url(#p)" fill-rule="evenodd" d="M139.513 84.003c-.01-1.38.53-2.7 1.5-3.68s2.29-1.53 3.66-1.54c1.39 0 2.71.56 3.68 1.53.97.98 1.52 2.31 1.51 3.69.01 1.38-.54 2.7-1.51 3.68s-2.29 1.53-3.67 1.54a5.23 5.23 0 0 1-3.67-1.54c-.97-.98-1.51-2.3-1.5-3.68zm3.77 0c-.01-.38.14-.75.41-1.02.26-.27.63-.43 1.01-.43a1.436 1.436 0 0 1 1.39 1.45c0 .37-.14.74-.41 1.01-.26.27-.62.43-1 .43a1.42 1.42 0 0 1-1.4-1.44z"/><g><ellipse fill="#2E3436" rx="1" ry="1" transform="matrix(3.291 0 0 3.333 108.687 84)" vector-effect="non-scaling-stroke"/><radialGradient id="q" cx=".5" cy=".5" r="3.039" fx=".187" fy=".094" gradientTransform="matrix(10.35 0 0 10.44 103.513 78.783)" gradientUnits="userSpaceOnUse"><stop offset="0%" stop-color="#6d6f69"/><stop offset="100%" stop-color="#555753"/></radialGradient><path fill="url(#q)" fill-rule="evenodd" d="M103.513 84.003c-.01-1.38.53-2.7 1.5-3.68s2.29-1.53 3.66-1.54c1.39 0 2.71.56 3.68 1.53.97.98 1.52 2.31 1.51 3.69.01 1.38-.54 2.7-1.51 3.68s-2.29 1.53-3.67 1.54a5.23 5.23 0 0 1-3.67-1.54c-.97-.98-1.51-2.3-1.5-3.68zm3.77 0c-.01-.38.14-.75.41-1.02.26-.27.63-.43 1.01-.43a1.436 1.436 0 0 1 1.39 1.45c0 .37-.14.74-.41 1.01-.26.27-.62.43-1 .43a1.42 1.42 0 0 1-1.4-1.44z"/></g></g></svg>
